svg/notification-off.svg

<svg width="24" height="24" viewBox="0 0 24 24" fill="none" xmlns="http://www.w3.org/2000/svg">
<path d="M19 10C19 6.77579 16.8202 4.06072 13.8539 3.24812C13.5567 2.51616 12.8386 2 12 2C11.1614 2 10.4433 2.51616 10.1462 3.24812C9.58607 3.40155 9.05402 3.62281 8.55939 3.90252L10.051 5.39411C10.6499 5.14035 11.3086 5 12 5C14.7614 5 17 7.23858 17 10V12.3431L19 14.3431V10Z" fill="#0D0D0D"/>
<path d="M3.17531 17.4343L5.00001 14.6972V9.99999C5.00001 8.94987 5.23125 7.95375 5.64559 7.05978L3.29291 4.70711C2.90238 4.31658 2.90238 3.68342 3.29291 3.29289C3.68343 2.90237 4.3166 2.90237 4.70712 3.29289L20.7071 19.2929C21.0976 19.6834 21.0976 20.3166 20.7071 20.7071C20.3166 21.0976 19.6834 21.0976 19.2929 20.7071L17.5858 19H15.4646C15.222 20.6961 13.7633 22 12 22C10.2368 22 8.77807 20.6961 8.53546 19H4.01298C3.91557 19.0014 3.81745 18.9885 3.72188 18.9608C3.59604 18.9244 3.4804 18.864 3.38027 18.7849C3.16671 18.616 3.0237 18.3618 3.0027 18.0738C2.99352 17.9509 3.00692 17.8258 3.04422 17.7051C3.07426 17.6076 3.1188 17.5165 3.17531 17.4343ZM5.86852 17H15.5858L7.19577 8.60997C7.06831 9.05126 7.00001 9.51765 7.00001 9.99999V15C7.00001 15.1974 6.94158 15.3904 6.83206 15.5547L5.86852 17ZM10.5854 19C10.7913 19.5826 11.3469 20 12 20C12.6531 20 13.2087 19.5826 13.4147 19H10.5854Z" fill="#0D0D0D"/>
</svg>

<svg width="24" height="24" fill="none" xmlns="http://www.w3.org/2000/svg"><path d="M19 10c0-3.224-2.18-5.94-5.146-6.752a2 2 0 00-3.708 0 6.956 6.956 0 00-1.587.655l1.492 1.491A5 5 0 0117 10v2.343l2 2V10zM3.175 17.434L5 14.697V10c0-1.05.231-2.046.646-2.94L3.293 4.707a1 1 0 111.414-1.414l16 16a1 1 0 01-1.414 1.414L17.586 19h-2.121a3.5 3.5 0 01-6.93 0H4.013a.994.994 0 01-.633-.215.999.999 0 01-.205-1.35zM5.87 17h9.717l-8.39-8.39A5.002 5.002 0 007 10v5a1 1 0 01-.168.555L5.87 17zm4.716 2a1.5 1.5 0 002.83 0h-2.83z" fill="#0D0D0D"/></svg>
